icons/zap-16.svg

<svg width="16" height="16" viewBox="0 0 16 16" fill="none" xmlns="http://www.w3.org/2000/svg">
<path fill-rule="evenodd" clip-rule="evenodd" d="M10.561 1.5C10.5569 1.5 10.553 1.50159 10.5501 1.50442L3.28743 8.57082C3.12661 8.72729 3.23739 9 3.46177 9H6.75C6.99991 9 7.2334 9.12447 7.37269 9.33196C7.51198 9.53944 7.53878 9.80268 7.44416 10.034L5.73076 14.2223L12.7126 7.42918C12.8734 7.27271 12.7626 7 12.5382 7H9.25C8.995 7 8.75747 6.87044 8.61942 6.65604C8.48137 6.44164 8.46171 6.17179 8.56723 5.93965L10.5752 1.52207C10.5771 1.51792 10.5774 1.5159 10.5775 1.51571L10.5775 1.51571L10.5775 1.5153C10.5774 1.51469 10.5769 1.51147 10.5741 1.50716C10.5714 1.50285 10.5686 1.50103 10.5681 1.50073L10.5677 1.50058C10.5676 1.50055 10.5656 1.5 10.561 1.5ZM9.50408 0.429334C9.78703 0.154034 10.1662 0 10.561 0C11.6633 0 12.3969 1.13929 11.9408 2.14278L10.4148 5.5H12.5382C14.1089 5.5 14.8843 7.40895 13.7586 8.50427L6.41859 15.6459C6.18523 15.873 5.87249 16 5.5469 16H5.24477C4.35626 16 3.75142 15.0991 4.08783 14.2767L5.63285 10.5H3.46177C1.8911 10.5 1.11566 8.59104 2.2414 7.49573L9.50408 0.429334Z" fill="black"/>
</svg>

<svg xmlns="http://www.w3.org/2000/svg" width="16" height="16" viewBox="0 0 16 16"><path fill-rule="evenodd" d="M10.561 1.5a.016.016 0 00-.01.004L3.286 8.571A.25.25 0 003.462 9H6.75a.75.75 0 01.694 1.034l-1.713 4.188 6.982-6.793A.25.25 0 0012.538 7H9.25a.75.75 0 01-.683-1.06l2.008-4.418.003-.006a.02.02 0 00-.004-.009.02.02 0 00-.006-.006L10.56 1.5zM9.504.43a1.516 1.516 0 012.437 1.713L10.415 5.5h2.123c1.57 0 2.346 1.909 1.22 3.004l-7.34 7.142a1.25 1.25 0 01-.871.354h-.302a1.25 1.25 0 01-1.157-1.723L5.633 10.5H3.462c-1.57 0-2.346-1.909-1.22-3.004L9.503.429z"/></svg>
